packages/bezier-icons/icons/lightning.svg

<svg width="24" height="24" viewBox="0 0 24 24" fill="none" xmlns="http://www.w3.org/2000/svg">
<path fill-rule="evenodd" clip-rule="evenodd" d="M13.3349 1.93207C14.606 0.566764 16.8302 1.94915 16.1686 3.69339L14.3454 8.5H17.554C19.7384 8.5 20.8722 11.1047 19.3837 12.7035L10.6651 22.0679C9.39398 23.4332 7.1698 22.0509 7.83141 20.3066L9.65461 15.5H6.44602C4.26154 15.5 3.12774 12.8953 4.61629 11.2965L13.3349 1.93207ZM13.7558 4.41496L6.08007 12.6593C5.78236 12.9791 6.00912 13.5 6.44602 13.5L11.8279 13.5C12.1778 13.5 12.4195 13.8502 12.2954 14.1773L10.2442 19.585L17.9199 11.3407C18.2176 11.021 17.9909 10.5 17.554 10.5L12.1721 10.5C11.8222 10.5 11.5805 10.1498 11.7046 9.82267L13.7558 4.41496Z" fill="#313234"/>
</svg>

<svg xmlns="http://www.w3.org/2000/svg" width="24" height="24" fill="none" viewBox="0 0 24 24"><path fill="#313234" fill-rule="evenodd" d="M13.335 1.932c1.271-1.365 3.495.017 2.834 1.761L14.345 8.5h3.209c2.184 0 3.318 2.605 1.83 4.204l-8.719 9.364c-1.271 1.365-3.495-.017-2.834-1.761L9.655 15.5H6.446c-2.184 0-3.318-2.605-1.83-4.203zm.42 2.483L6.08 12.659a.5.5 0 0 0 .366.841h5.382a.5.5 0 0 1 .467.677l-2.05 5.408 7.675-8.244a.5.5 0 0 0-.366-.841h-5.382a.5.5 0 0 1-.467-.677z" clip-rule="evenodd"/></svg>
